X:32
T:B032-  Bonny Christ Church Bells
Q:1/4=120
L:1/4
M:C|
K:C
c3/2c/2cc|ccce|dcBA|G3/2G/2GG|\
EGCG|cFGg/2f/2|ead/2e/2f|e3/2d/2c2|\
e3/2e/2ee|e3/2e/2dg|fe/2f/2ec|eGdd|\
eded|eddc/2B/2|cAdB|c3/2d/2e2|\
g/2g/2g/2g/2 g g/2g/2|g g/2g/2gG|A3/2 A/2Bc|\
B3A/2B/2|cBcB|cdBA/2G/2|AFG3/2G/2|.C4|]


